X:33
T:Golden Cross. JJo8.033, The
%%VWML:JohnsonVol8-2184-p17-0
F:http://www.vwml.org/record/JohnsonVol8/2184/p17
Z:Transcribed by Simon Furey and Lewis Jones
Z:vmp.Simon Wilson 2013 www.village-music-project.org.uk
Z:Dance added by John Chambers 2017
M:C|
L:1/8
%Q:1/2=70
K:Gm
(G/A/) |\
BGG,G "^tr"G3(A/B/) | cAA,A "^tr"A3(B/c/) | dBAG {cd}e2dc | dBAG A^FED | G,GBG dBAG |
^FAce dg^fa | gbag af=ed | g=ed^c d3 :: (d/e/) | f(g/a/)bg {g}f3g |
fdcB{B}A3G | FB/c/ dB Aceg | fdec B3(G/A/) | BG^FG "^tr"G3(A/B/) | cdec {B}A3(B/c/) |
dBAG ecBA | dBAG A^FED | G,GBG dBAG | ^FAce dg^fa | gedc dBAG | cAG^FG3 :|
W: The 1st Cu. whole figure at top and cast off .|.
W:then whole figure at Bottom and cast up to the
W:top :||. Cross over two Cu. Cross up two Cu. up to
W:the top cast off :||.
W:hands 4 at Bottom Lead up to
W:the top Cast off Right and Left at top.
W:
T:Chalkhill Hall. JJo8.034
B:J.Johnson Choice Collection Vol 8 1758
Z:vmp.Simon Wilson 2013 www.village-music-project.org.uk
Z:Dance added by John Chambers 2017
M:C|
L:1/8
%Q:1/2=100
K:G
|: G2Bd c2Ac | B2GB   ABcd | ecBA dBAG | FGAB A2D2 :|
|: g2dB G2Bd | c2(ag) fedc | BGcA dBec | fdef g2G2 :|
W: First and 2d Cu. foot it and
W:right hands and Left half
W:round .| the same back again
W::| Cross over two Cu :||.
W:Lead up to the top and cast
W:off :||: foot it at both
W:Corners and turn :|| Lead out
W:on both Sides and turn :||:
W:
